;FLAVOR:Marlin
;TIME:26419
;Filament used: 29.0532m
;Layer height: 0.25
;MINX:53.427
;MINY:2
;MINZ:0.2
;MAXX:173.096
;MAXY:209.037
;MAXZ:35.95
;Generated with Cura_SteamEngine 4.12.1
M82 ;absolute extrusion mode
; Script based on an original created by tjjfvi (https://github.com/tjjfvi)
; An up-to-date version of the tjjfvi's original script can be found
; here: https://csi.t6.fyi/
; Note - This script will only work in Cura V4.2 and above!
; speed_z_hop = 5
; retraction_amount = 6.5
; retraction_hop = 0.2
; retraction_hop_enabled = False
; retraction_prime_speed = 25
; retraction_retract_speed = 25
; retraction_speed = 25
; speed_travel = 150.0
; retraction_enable = True
; layer_height = 0.25
; smooth_spiralized_contours = True
; magic_mesh_surface_mode = normal
; Ender 3 Custom Start G-code
M140 S60 ; Set Heat Bed temperature
M190 S60 ; Wait for Heat Bed temperature
G28 ; Home all axes
M104 S200 ; Set Extruder temperature
M117 Leveling Bed
G29 ; Auto bed-level (BL-Touch)
G92 E0 ; Reset Extruder
G1 X0.1 Y20 Z0.3 F5000.0 ; Move to start position
M109 S200 ; Wait for Extruder temperature
; G1 Z2.0 F3000 ; Move Z Axis up little to prevent scratching of Heat Bed
G1 X0.1 Y200.0 Z0.3 F1500.0 E15 ; Draw the first line
G1 X0.4 Y200.0 Z0.3 F5000.0 ; Move to side a little
G1 X0.4 Y20 Z0.3 F1500.0 E30 ; Draw the second line
G92 E0 ; Reset Extruder
G1 Z2.0 F3000 ; Move Z Axis up little to prevent scratching of Heat Bed
; End of custom start GCode
G92 E0
G92 E0
G1 F1500 E-6.5
;LAYER_COUNT:144
;LAYER:0
M107
G0 F6000 X117.934 Y43.963 Z0.2
;TYPE:SKIRT
G1 F1500 E0
G1 F600 X118.19 Y44.34 E0.02751
G1 X118.578 Y45.053 E0.07651
G1 X118.991 Y46.081 E0.14339
G1 X119.051 Y46.265 E0.15507
G1 X140.139 Y46.265 E1.4281
G1 X140.28 Y45.895 E1.452
G1 X140.643 Y45.168 E1.50105
G1 X141.075 Y44.481 E1.55004
G1 X141.572 Y43.839 E1.59905
G1 X142.131 Y43.249 E1.64812
G1 X142.98 Y42.538 E1.71497
G1 X143.491 Y42.166 E1.75312
G1 X144.171 Y41.721 E1.80218
G1 X144.858 Y41.362 E1.84898
G1 X143.738 Y40.74 E1.92631
G1 X141.482 Y39.455 E2.08304
G1 X139.531 Y38.359 E2.21813
G1 X138.781 Y38.62 E2.26607
G1 X138.002 Y38.849 E2.31509
G1 X137.204 Y39 E2.36411
G1 X136.358 Y39.073 E2.41537
G1 X132.607 Y39.203 E2.64195
G1 X131.795 Y39.191 E2.69097
G1 X130.988 Y39.1 E2.74
G1 X130.194 Y38.929 E2.78903
G1 X129.811 Y38.806 E2.81331
G1 X129.41 Y39.181 E2.84645
G1 X128.764 Y39.675 E2.89555
G1 X126.408 Y41.301 E3.06835
G1 X125.718 Y41.729 E3.11737
G1 X124.989 Y42.087 E3.1664
G1 X124.228 Y42.371 E3.21543
G1 X123.297 Y42.609 E3.27344
G1 X120.762 Y43.102 E3.42934
G1 X120.422 Y43.143 E3.45001
G1 X120.092 Y43.315 E3.47248
G1 X119.338 Y43.618 E3.52153
G1 X118.559 Y43.846 E3.57053
G1 X117.934 Y43.963 E3.60892
G0 F6000 X117.263 Y44.142
G1 F600 X117.692 Y44.793 E3.65598
G1 X118.051 Y45.484 E3.70299
G1 X118.363 Y46.285 E3.75488
G1 X118.558 Y46.884 E3.79291
G1 X118.569 Y46.925 E3.79547
G1 X140.597 Y46.925 E5.12524
G1 X140.619 Y46.858 E5.1295
G1 X140.898 Y46.131 E5.1765
G1 X141.25 Y45.436 E5.22353
G1 X141.671 Y44.781 E5.27054
G1 X142.157 Y44.172 E5.31757
G1 X142.703 Y43.617 E5.36457
G1 X143.369 Y43.072 E5.41652
G1 X143.88 Y42.7 E5.45468
G1 X144.532 Y42.274 E5.50169
G1 X145.225 Y41.918 E5.54872
G1 X145.951 Y41.634 E5.59578
G1 X146.077 Y41.599 E5.60368
G1 X145.603 Y41.123 E5.64423
G1 X145.426 Y40.923 E5.66035
G1 X144.064 Y40.166 E5.75442
G1 X141.848 Y38.904 E5.90837
G1 X139.595 Y37.639 E6.06434
G1 X138.565 Y37.997 E6.13017
G1 X137.817 Y38.215 E6.1772
G1 X137.05 Y38.355 E6.22427
G1 X136.335 Y38.413 E6.26758
G1 X132.584 Y38.543 E6.49415
G1 X131.805 Y38.53 E6.54118
G1 X131.032 Y38.438 E6.58817
G1 X130.272 Y38.266 E6.63521
G1 X129.63 Y38.05 E6.6761
G1 X129.507 Y38.19 E6.68735
G1 X128.934 Y38.718 E6.73439
G1 X128.389 Y39.132 E6.77571
G1 X126.033 Y40.758 E6.94851
G1 X125.37 Y41.167 E6.99554
G1 X124.669 Y41.506 E7.04255
G1 X123.936 Y41.771 E7.0896
G1 X123.171 Y41.961 E7.13718
G1 X120.636 Y42.454 E7.29308
G1 X120.22 Y42.504 E7.31837
G1 X119.757 Y42.742 E7.3498
G1 X119.032 Y43.025 E7.39678
G1 X118.281 Y43.233 E7.44383
G1 X117.513 Y43.362 E7.49084
G1 X116.643 Y43.413 E7.54345
G1 X116.77 Y43.539 E7.55425
G1 X117.263 Y44.142 E7.60127
G0 F6000 X116.79 Y44.613
G1 F600 X117.188 Y45.242 E7.6462
G1 X117.517 Y45.909 E7.6911
G1 X117.736 Y46.49 E7.72858
G1 X117.931 Y47.089 E7.76661
G1 X118.063 Y47.585 E7.79759
G1 X141.076 Y47.585 E9.18682
G1 X141.246 Y47.063 E9.21996
G1 X141.514 Y46.368 E9.26493
G1 X141.855 Y45.707 E9.30983
G1 X142.265 Y45.086 E9.35475
G1 X142.74 Y44.512 E9.39972
G1 X143.273 Y43.992 E9.44468
G1 X143.757 Y43.605 E9.48208
G1 X144.268 Y43.233 E9.52024
G1 X144.893 Y42.828 E9.5652
G1 X145.557 Y42.492 E9.61012
G1 X146.253 Y42.23 E9.65502
G1 X146.974 Y42.043 E9.69998
G1 X147.569 Y41.956 E9.73628
G1 X147.207 Y41.692 E9.76333
G1 X146.629 Y41.223 E9.80826
G1 X146.097 Y40.685 E9.85394
G1 X145.845 Y40.401 E9.87686
G1 X144.391 Y39.593 E9.97727
G1 X142.135 Y38.308 E10.134
G1 X139.66 Y36.918 E10.30536
G1 X138.348 Y37.374 E10.38921
G1 X137.633 Y37.58 E10.43413
G1 X136.9 Y37.708 E10.47905
G1 X136.312 Y37.754 E10.51465
G1 X132.561 Y37.884 E10.74123
G1 X131.817 Y37.87 E10.78615
G1 X131.078 Y37.776 E10.83112
G1 X130.354 Y37.603 E10.87606
G1 X129.653 Y37.354 E10.92096
G1 X129.447 Y37.26 E10.93463
G1 X129.011 Y37.752 E10.97432
G1 X128.461 Y38.253 E11.01923
G1 X128.014 Y38.589 E11.05299
G1 X125.658 Y40.215 E11.22579
G1 X125.024 Y40.604 E11.2707
G1 X124.351 Y40.923 E11.31566
G1 X123.649 Y41.168 E11.36054
G1 X123.045 Y41.314 E11.39805
G1 X120.51 Y41.807 E11.55395
G1 X120.025 Y41.865 E11.58344
G1 X119.425 Y42.167 E11.62399
G1 X118.729 Y42.43 E11.6689
G1 X118.008 Y42.616 E11.71385
G1 X117.272 Y42.724 E11.75876
G1 X116.637 Y42.753 E11.79713
G1 X114.842 Y42.753 E11.90549
G1 X115.225 Y43.032 E11.9341
G1 X115.802 Y43.502 E11.97902
G1 X116.326 Y44.031 E12.02397
G1 X116.79 Y44.613 E12.0689
G0 F6000 X116.312 Y45.081
G1 F600 X116.679 Y45.686 E12.11162
G1 X116.976 Y46.329 E12.15437
G1 X117.108 Y46.694 E12.17781
G1 X117.303 Y47.293 E12.21583
G1 X117.484 Y47.978 E12.2586
G1 X117.523 Y48.245 E12.27489
G1 X141.569 Y48.245 E13.72648
G1 X141.679 Y47.866 E13.7503
G1 X141.874 Y47.267 E13.78833
G1 X142.131 Y46.607 E13.83109
G1 X142.46 Y45.981 E13.87378
G1 X142.858 Y45.395 E13.91654
G1 X143.32 Y44.859 E13.95926
G1 X143.839 Y44.377 E14.00202
G1 X144.146 Y44.139 E14.02547
G1 X144.657 Y43.767 E14.06362
G1 X145.252 Y43.383 E14.10637
G1 X145.886 Y43.069 E14.14908
G1 X146.552 Y42.828 E14.19184
G1 X147.241 Y42.664 E14.23459
G1 X147.943 Y42.579 E14.27728
G1 X148.347 Y42.566 E14.30168
G1 X148.977 Y42.566 E14.33971
G1 X149.635 Y42.603 E14.3795
G1 X149.497 Y42.526 E14.38904
G1 X149.165 Y42.3 E14.41328
G1 X147.595 Y41.158 E14.53048
G1 X147.047 Y40.71 E14.57321
G1 X146.591 Y40.247 E14.61244
G1 X146.265 Y39.879 E14.64212
G1 X144.718 Y39.019 E14.74896
G1 X142.495 Y37.753 E14.9034
G1 X139.94 Y36.318 E15.0803
G1 X139.74 Y36.19 E15.09463
G1 X138.131 Y36.75 E15.19748
G1 X137.45 Y36.945 E15.24024
G1 X136.752 Y37.061 E15.28295
G1 X136.289 Y37.094 E15.31097
G1 X132.538 Y37.224 E15.53755
G1 X131.83 Y37.209 E15.5803
G1 X131.129 Y37.114 E15.623
G1 X130.443 Y36.94 E15.66572
G1 X129.539 Y36.577 E15.72453
G1 X129.262 Y36.44 E15.74319
G1 X128.988 Y36.784 E15.76973
G1 X128.517 Y37.313 E15.81249
G1 X127.99 Y37.785 E15.8552
G1 X127.639 Y38.045 E15.88157
G1 X125.283 Y39.671 E16.05438
G1 X124.679 Y40.04 E16.09711
G1 X124.037 Y40.338 E16.13983
G1 X123.365 Y40.562 E16.18259
G1 X122.919 Y40.666 E16.21024
G1 X120.384 Y41.159 E16.36614
G1 X119.806 Y41.228 E16.40128
G1 X119.731 Y41.276 E16.40665
G1 X119.096 Y41.59 E16.44942
G1 X118.431 Y41.831 E16.49212
G1 X117.742 Y41.995 E16.53487
G1 X117.039 Y42.08 E16.57762
G1 X116.637 Y42.093 E16.6019
G1 X114.701 Y42.093 E16.71877
G1 X113.994 Y42.053 E16.76152
G1 X113.296 Y41.934 E16.80426
G1 X112.616 Y41.736 E16.84702
G1 X111.963 Y41.464 E16.88972
G1 X111.345 Y41.119 E16.93244
G1 X111.013 Y40.893 E16.95669
G1 X109.443 Y39.751 E17.07389
G1 X108.895 Y39.303 E17.11662
G1 X108.337 Y38.722 E17.16524
G1 X107.632 Y37.886 E17.23126
G1 X106.7 Y37.15 E17.30295
G1 X106.436 Y37.041 E17.32019
G1 X106.226 Y37.037 E17.33287
G1 X105.52 Y36.982 E17.37562
G1 X104.825 Y36.848 E17.41835
G1 X104.149 Y36.636 E17.46112
G1 X103.502 Y36.35 E17.50382
G1 X102.668 Y35.838 E17.5629
G1 X101.1 Y34.697 E17.67996
G1 X100.552 Y34.249 E17.72269
G1 X100.058 Y33.741 E17.76547
G1 X99.624 Y33.182 E17.80819
G1 X99.256 Y32.577 E17.85093
G1 X98.959 Y31.934 E17.89369
G1 X98.827 Y31.568 E17.91718
G1 X98.228 Y29.728 E18.03399
G1 X98.047 Y29.043 E18.07676
G1 X97.945 Y28.343 E18.11947
G1 X97.922 Y27.635 E18.16223
G1 X97.979 Y26.93 E18.20493
G1 X98.115 Y26.235 E18.24768
G1 X98.276 Y25.703 E18.28123
G1 X98.949 Y23.792 E18.40354
G1 X97.017 Y23.14 E18.52663
G1 X96.082 Y22.954 E18.58418
G1 X94.878 Y23.179 E18.65812
G1 X94.397 Y23.341 E18.68876
G1 X93.969 Y23.824 E18.72772
G1 X92.624 Y25.842 E18.87411
G1 X92.199 Y26.408 E18.91684
G1 X91.487 Y27.126 E18.97788
G1 X89.036 Y29.226 E19.17273
G1 X88.473 Y29.656 E19.21549
G1 X87.865 Y30.019 E19.25824
G1 X87.322 Y30.272 E19.2944
G1 X86.024 Y30.801 E19.37902
G1 X85.892 Y31.141 E19.40103
G1 X85.562 Y31.767 E19.44375
G1 X85.164 Y32.353 E19.48651
G1 X84.703 Y32.89 E19.52924
G1 X84.184 Y33.371 E19.57196
G1 X83.761 Y33.692 E19.60401
G1 X81.944 Y34.953 E19.73752
G1 X81.34 Y35.323 E19.78028
G1 X80.699 Y35.623 E19.82301
G1 X80.028 Y35.849 E19.86575
G1 X79.336 Y35.997 E19.90847
G1 X78.631 Y36.067 E19.95124
G1 X78.026 Y36.063 E19.98776
G1 X77.826 Y36.052 E19.99985
G1 X77.415 Y36.255 E20.02752
G1 X76.75 Y36.495 E20.0702
G1 X76.061 Y36.659 E20.11296
G1 X75.358 Y36.744 E20.1557
G1 X74.957 Y36.757 E20.17992
G1 X73.021 Y36.757 E20.29679
G1 X72.314 Y36.717 E20.33954
G1 X71.616 Y36.598 E20.38229
G1 X70.936 Y36.4 E20.42504
G1 X70.283 Y36.128 E20.46774
G1 X69.665 Y35.783 E20.51047
G1 X69.089 Y35.371 E20.55322
G1 X68.672 Y35.003 E20.5868
G1 X67.261 Y33.644 E20.70506
G1 X66.69 Y33.616 E20.73957
G1 X65.992 Y33.503 E20.78225
G1 X65.31 Y33.311 E20.82502
G1 X64.655 Y33.043 E20.86775
G1 X64.034 Y32.703 E20.91048
G1 X63.666 Y32.456 E20.93724
G1 X61.611 Y30.965 E21.09051
G1 X61.062 Y30.517 E21.13328
G1 X60.568 Y30.011 E21.17597
G1 X60.133 Y29.452 E21.21873
G1 X59.764 Y28.848 E21.26146
G1 X59.396 Y28.019 E21.31621
G1 X58.528 Y25.615 E21.4705
G1 X58.349 Y25.034 E21.5072
G1 X57.961 Y23.512 E21.60202
G1 X57.159 Y21.904 E21.7105
G1 X56.88 Y21.254 E21.7532
G1 X56.675 Y20.576 E21.79595
G1 X56.548 Y19.879 E21.83872
G1 X56.5 Y19.173 E21.88144
G1 X56.533 Y18.466 E21.92417
G1 X56.644 Y17.767 E21.96689
G1 X56.763 Y17.307 E21.99558
G1 X57.376 Y15.259 E22.12463
G1 X57.617 Y14.593 E22.16738
G1 X57.932 Y13.959 E22.21012
G1 X58.316 Y13.364 E22.25287
G1 X58.764 Y12.817 E22.29555
G1 X59.272 Y12.323 E22.33833
G1 X59.694 Y11.987 E22.37089
G1 X61.262 Y10.846 E22.48795
G1 X61.857 Y10.463 E22.53067
G1 X62.491 Y10.149 E22.57338
G1 X63.157 Y9.908 E22.61614
G1 X63.846 Y9.744 E22.65889
G1 X64.549 Y9.659 E22.70164
G1 X64.951 Y9.646 E22.72592
G1 X66.888 Y9.646 E22.84285
G1 X67.595 Y9.686 E22.8856
G1 X68.293 Y9.805 E22.92834
G1 X68.973 Y10.003 E22.9711
G1 X69.626 Y10.275 E23.0138
G1 X70.244 Y10.62 E23.05653
G1 X71.025 Y11.205 E23.11543
G1 X73.11 Y13.036 E23.28294
G1 X73.615 Y13.532 E23.32567
G1 X73.819 Y13.784 E23.34524
G1 X76.259 Y13.155 E23.49736
G1 X77.255 Y12.983 E23.55837
G1 X78.715 Y12.85 E23.64687
G1 X78.925 Y12.572 E23.6679
G1 X80.517 Y10.609 E23.82048
G1 X80.993 Y10.085 E23.86321
G1 X81.601 Y9.56 E23.9117
G1 X84.774 Y7.156 E24.15202
G1 X85.361 Y6.761 E24.19473
G1 X85.933 Y6.461 E24.23372
G1 X88.382 Y5.331 E24.39654
G1 X89.041 Y5.071 E24.4393
G1 X89.446 Y4.952 E24.46479
G1 X92.158 Y4.254 E24.63384
G1 X92.853 Y4.116 E24.67661
G1 X93.599 Y4.057 E24.72179
G1 X97.621 Y3.979 E24.96463
G1 X98.329 Y4.005 E25.0074
G1 X99.029 Y4.111 E25.05014
G1 X99.757 Y4.31 E25.0957
G1 X102.213 Y5.143 E25.25225
G1 X104.409 Y5.661 E25.38846
G1 X106.938 Y6.198 E25.54453
G1 X109.229 Y6.559 E25.68454
G1 X109.921 Y6.709 E25.72728
G1 X110.441 Y6.877 E25.76027
G1 X110.554 Y6.919 E25.76755
G1 X110.974 Y6.703 E25.79606
G1 X111.636 Y6.452 E25.8388
G1 X112.322 Y6.277 E25.88153
G1 X112.843 Y6.198 E25.91335
G1 X115.121 Y5.949 E26.05168
G1 X115.828 Y5.912 E26.09442
G1 X116.534 Y5.955 E26.13712
G1 X117.232 Y6.077 E26.17989
G1 X117.973 Y6.3 E26.22661
G1 X120.393 Y7.193 E26.38232
G1 X121.042 Y7.475 E26.42504
G1 X121.883 Y7.985 E26.48441
G1 X124.212 Y9.661 E26.65763
G1 X124.71 Y10.031 E26.69508
G1 X124.819 Y9.973 E26.70254
G1 X125.46 Y9.673 E26.74526
G1 X126.131 Y9.447 E26.788
G1 X126.824 Y9.299 E26.83078
G1 X127.528 Y9.229 E26.87349
G1 X128.271 Y9.242 E26.91835
G1 X130.821 Y9.438 E27.07274
G1 X131.522 Y9.532 E27.11543
G1 X132.209 Y9.705 E27.1582
G1 X132.872 Y9.954 E27.20095
G1 X133.605 Y10.337 E27.25088
G1 X136.843 Y12.312 E27.47984
G1 X137.426 Y12.714 E27.52259
G1 X137.959 Y13.18 E27.56533
G1 X138.437 Y13.702 E27.60805
G1 X138.853 Y14.275 E27.6508
G1 X139.144 Y14.814 E27.68778
G1 X139.334 Y14.771 E27.69954
G1 X140.037 Y14.694 E27.74223
G1 X140.613 Y14.691 E27.777
G1 X143.35 Y14.801 E27.94236
G1 X144.054 Y14.869 E27.98506
G1 X144.747 Y15.017 E28.02783
G1 X145.418 Y15.241 E28.07054
G1 X146.06 Y15.54 E28.11329
G1 X146.206 Y15.632 E28.12371
G1 X146.372 Y15.275 E28.14747
G1 X146.741 Y14.671 E28.1902
G1 X147.175 Y14.112 E28.23292
G1 X147.67 Y13.606 E28.27565
G1 X148.231 Y13.15 E28.3193
G1 X150.559 Y11.471 E28.49257
G1 X151.156 Y11.09 E28.53532
G1 X151.792 Y10.778 E28.57809
G1 X152.459 Y10.541 E28.62082
G1 X153.148 Y10.38 E28.66353
G1 X153.801 Y10.312 E28.70316
G1 X154.166 Y9.913 E28.73581
G1 X154.861 Y9.326 E28.79073
G1 X156.43 Y8.185 E28.90784
G1 X157.026 Y7.802 E28.95061
G1 X157.66 Y7.488 E28.99332
G1 X158.326 Y7.248 E29.03605
G1 X159.015 Y7.084 E29.07881
G1 X159.718 Y6.999 E29.12155
G1 X160.118 Y6.986 E29.14571
G1 X162.054 Y6.986 E29.26258
G1 X162.761 Y7.026 E29.30533
G1 X163.459 Y7.145 E29.34808
G1 X164.139 Y7.343 E29.39083
G1 X164.792 Y7.615 E29.43353
G1 X165.41 Y7.96 E29.47626
G1 X165.819 Y8.242 E29.50625
G1 X167.779 Y9.714 E29.65422
G1 X168.32 Y10.171 E29.69697
G1 X168.807 Y10.685 E29.73972
G1 X169.232 Y11.251 E29.78244
G1 X169.591 Y11.862 E29.82522
G1 X169.988 Y12.825 E29.8881
G1 X170.821 Y15.44 E30.05378
G1 X170.998 Y16.126 E30.09655
G1 X171.096 Y16.827 E30.13928
G1 X171.114 Y17.534 E30.18197
G1 X171.053 Y18.24 E30.22475
G1 X170.88 Y19.052 E30.27487
G1 X169.87 Y22.617 E30.49855
G1 X169.638 Y23.286 E30.54129
G1 X169.333 Y23.925 E30.58403
G1 X168.958 Y24.525 E30.62675
G1 X168.518 Y25.08 E30.6695
G1 X168.215 Y25.384 E30.69541
G1 X168.298 Y25.548 E30.70651
G1 X168.581 Y26.197 E30.74925
G1 X168.789 Y26.873 E30.79195
G1 X168.903 Y27.456 E30.82781
G1 X169.111 Y28.862 E30.91361
G1 X169.175 Y29.567 E30.95634
G1 X169.159 Y30.275 E30.99909
G1 X169.064 Y30.977 E31.04186
G1 X168.89 Y31.663 E31.08458
G1 X168.757 Y32.041 E31.10877
G1 X167.772 Y34.589 E31.27368
G1 X167.48 Y35.234 E31.31642
G1 X167.117 Y35.841 E31.35911
G1 X166.688 Y36.405 E31.40189
G1 X166.331 Y36.788 E31.4335
G1 X164.401 Y38.695 E31.59729
G1 X163.87 Y39.163 E31.64002
G1 X163.423 Y39.485 E31.67327
G1 X160.941 Y41.106 E31.85223
G1 X160.337 Y41.454 E31.89431
G1 X157.614 Y42.828 E32.07843
G1 X156.965 Y43.11 E32.12115
G1 X156.288 Y43.318 E32.1639
G1 X155.592 Y43.448 E32.20664
G1 X154.789 Y43.5 E32.25522
G1 X152.853 Y43.5 E32.37209
G1 X152.195 Y43.463 E32.41187
G1 X152.333 Y43.54 E32.42141
G1 X152.667 Y43.767 E32.44579
G1 X153.178 Y44.139 E32.48395
G1 X153.726 Y44.587 E32.52668
G1 X154.22 Y45.094 E32.56941
G1 X154.654 Y45.654 E32.61218
G1 X155.021 Y46.259 E32.65489
G1 X155.318 Y46.902 E32.69765
G1 X155.462 Y47.304 E32.72343
G1 X155.537 Y47.381 E32.72992
G1 X155.971 Y47.941 E32.77269
G1 X156.338 Y48.546 E32.8154
G1 X156.635 Y49.189 E32.85816
G1 X156.767 Y49.554 E32.88159
G1 X156.798 Y49.65 E32.88768
G1 X157.055 Y49.981 E32.91298
G1 X157.422 Y50.586 E32.95569
G1 X157.719 Y51.229 E32.99845
G1 X157.851 Y51.594 E33.02188
G1 X158.046 Y52.193 E33.05991
G1 X158.227 Y52.878 E33.10268
G1 X158.329 Y53.578 E33.14538
G1 X158.352 Y54.286 E33.18815
G1 X158.295 Y54.991 E33.23084
G1 X158.159 Y55.686 E33.27359
G1 X158.046 Y56.075 E33.29805
G1 X157.851 Y56.674 E33.33608
