;FLAVOR:Marlin
;TIME:26455
;Filament used: 11.3216m
;Layer height: 0.12
;MINX:43.235
;MINY:42.045
;MINZ:0.2
;MAXX:176.765
;MAXY:177.955
;MAXZ:2
;Generated with Cura_SteamEngine 4.12.1
M82 ;absolute extrusion mode
; Script based on an original created by tjjfvi (https://github.com/tjjfvi)
; An up-to-date version of the tjjfvi's original script can be found
; here: https://csi.t6.fyi/
; Note - This script will only work in Cura V4.2 and above!
; speed_z_hop = 5
; retraction_amount = 6.5
; retraction_hop = 0.2
; retraction_hop_enabled = False
; retraction_prime_speed = 25
; retraction_retract_speed = 25
; retraction_speed = 25
; speed_travel = 150.0
; retraction_enable = True
; layer_height = 0.12
; smooth_spiralized_contours = True
; magic_mesh_surface_mode = normal
; Ender 3 Custom Start G-code
M140 S60 ; Set Heat Bed temperature
M190 S60 ; Wait for Heat Bed temperature
G28 ; Home all axes
M104 S200 ; Set Extruder temperature
M117 Leveling Bed
G29 ; Auto bed-level (BL-Touch)
G92 E0 ; Reset Extruder
G1 X0.1 Y20 Z0.3 F5000.0 ; Move to start position
M109 S200 ; Wait for Extruder temperature
; G1 Z2.0 F3000 ; Move Z Axis up little to prevent scratching of Heat Bed
G1 X0.1 Y200.0 Z0.3 F1500.0 E15 ; Draw the first line
G1 X0.4 Y200.0 Z0.3 F5000.0 ; Move to side a little
G1 X0.4 Y20 Z0.3 F1500.0 E30 ; Draw the second line
G92 E0 ; Reset Extruder
G1 Z2.0 F3000 ; Move Z Axis up little to prevent scratching of Heat Bed
; End of custom start GCode
G92 E0
G92 E0
G1 F1500 E-6.5
;LAYER_COUNT:16
;LAYER:0
M107
G0 F6000 X47.587 Y46.865 Z0.2
;TYPE:SKIRT
G1 F1500 E0
G1 F600 X48.079 Y46.374 E0.02797
G1 X48.631 Y45.872 E0.058
G1 X49.16 Y45.433 E0.08567
G1 X49.767 Y44.975 E0.11627
G1 X50.338 Y44.585 E0.1441
G1 X50.955 Y44.203 E0.1733
G1 X51.552 Y43.869 E0.20083
G1 X52.245 Y43.524 E0.23199
G1 X52.883 Y43.243 E0.26004
G1 X53.586 Y42.971 E0.29038
G1 X54.257 Y42.747 E0.31885
G1 X54.982 Y42.542 E0.34917
G1 X55.645 Y42.387 E0.37657
G1 X56.376 Y42.251 E0.4065
G1 X57.066 Y42.155 E0.43453
G1 X57.81 Y42.086 E0.4646
G1 X58.499 Y42.054 E0.49236
G1 X58.877 Y42.045 E0.50758
G1 X62.895 Y42.045 E0.66928
G1 X63.701 Y42.085 E0.70176
G1 X64.499 Y42.205 E0.73424
G1 X65.281 Y42.402 E0.76669
G1 X66.039 Y42.677 E0.79914
G1 X66.767 Y43.025 E0.83161
G1 X67.457 Y43.443 E0.86408
G1 X68.054 Y43.892 E0.89414
G1 X68.707 Y43.408 E0.92686
G1 X69.4 Y42.995 E0.95932
G1 X70.13 Y42.653 E0.99177
G1 X70.891 Y42.384 E1.02425
G1 X71.675 Y42.192 E1.05673
G1 X72.473 Y42.079 E1.08917
G1 X73.216 Y42.045 E1.1191
G1 X161.157 Y42.046 E4.65827
G1 X161.548 Y42.055 E4.67401
G1 X162.214 Y42.087 E4.70084
G1 X162.948 Y42.156 E4.73051
G1 X163.636 Y42.252 E4.75847
G1 X164.384 Y42.392 E4.78909
G1 X165.048 Y42.549 E4.81655
G1 X165.756 Y42.751 E4.84618
G1 X166.414 Y42.971 E4.8741
G1 X167.116 Y43.243 E4.9044
G1 X167.758 Y43.526 E4.93264
G1 X168.449 Y43.87 E4.9637
G1 X169.055 Y44.209 E4.99165
G1 X169.683 Y44.599 E5.0214
G1 X170.252 Y44.989 E5.04916
G1 X170.847 Y45.438 E5.07916
G1 X171.375 Y45.876 E5.10677
G1 X171.951 Y46.403 E5.13819
G1 X172.441 Y46.896 E5.16616
G1 X172.925 Y47.427 E5.19508
G1 X173.376 Y47.969 E5.22345
G1 X173.84 Y48.584 E5.25446
G1 X174.224 Y49.146 E5.28185
G1 X174.61 Y49.769 E5.31135
G1 X174.944 Y50.367 E5.33891
G1 X175.287 Y51.057 E5.36992
G1 X175.566 Y51.691 E5.3978
G1 X175.835 Y52.386 E5.42779
G1 X176.062 Y53.064 E5.45657
G1 X176.27 Y53.798 E5.48727
G1 X176.424 Y54.458 E5.51454
G1 X176.559 Y55.183 E5.54422
G1 X176.655 Y55.871 E5.57218
G1 X176.724 Y56.614 E5.60221
G1 X176.756 Y57.295 E5.62965
G1 X176.765 Y57.677 E5.64502
G1 X176.765 Y162.312 E9.85604
G1 X176.756 Y162.695 E9.87145
G1 X176.723 Y163.395 E9.89966
G1 X176.654 Y164.134 E9.92953
G1 X176.558 Y164.824 E9.95756
G1 X176.418 Y165.574 E9.98827
G1 X176.262 Y166.234 E10.01556
G1 X176.058 Y166.95 E10.04552
G1 X175.836 Y167.612 E10.07362
G1 X175.569 Y168.302 E10.1034
G1 X175.287 Y168.943 E10.13158
G1 X174.94 Y169.639 E10.16288
G1 X174.601 Y170.245 E10.19082
G1 X174.217 Y170.864 E10.22014
G1 X173.839 Y171.417 E10.2471
G1 X173.381 Y172.025 E10.27773
G1 X172.925 Y172.574 E10.30645
G1 X172.413 Y173.135 E10.33702
G1 X171.921 Y173.626 E10.36499
G1 X171.369 Y174.128 E10.39502
G1 X170.84 Y174.567 E10.42269
G1 X170.233 Y175.025 E10.45329
G1 X169.662 Y175.415 E10.48112
G1 X169.045 Y175.797 E10.51032
G1 X168.448 Y176.131 E10.53785
G1 X167.755 Y176.476 E10.56901
G1 X167.117 Y176.757 E10.59706
G1 X166.414 Y177.029 E10.6274
G1 X165.743 Y177.253 E10.65587
G1 X165.018 Y177.458 E10.68619
G1 X164.355 Y177.613 E10.71359
G1 X163.624 Y177.749 E10.74352
G1 X162.934 Y177.845 E10.77155
G1 X162.187 Y177.914 E10.80174
G1 X161.493 Y177.946 E10.8297
G1 X161.118 Y177.955 E10.8448
G1 X58.844 Y177.954 E14.96079
G1 X58.453 Y177.945 E14.97653
G1 X57.787 Y177.913 E15.00337
G1 X57.056 Y177.844 E15.03292
G1 X56.366 Y177.748 E15.06095
G1 X55.612 Y177.607 E15.09182
G1 X54.949 Y177.45 E15.11924
G1 X54.244 Y177.249 E15.14875
G1 X53.586 Y177.029 E15.17667
G1 X52.884 Y176.757 E15.20697
G1 X52.242 Y176.474 E15.2352
G1 X51.551 Y176.13 E15.26627
G1 X50.945 Y175.791 E15.29421
G1 X50.317 Y175.401 E15.32396
G1 X49.748 Y175.011 E15.35173
G1 X49.152 Y174.561 E15.38178
G1 X48.623 Y174.122 E15.40945
G1 X48.048 Y173.596 E15.44081
G1 X47.559 Y173.104 E15.46872
G1 X47.075 Y172.573 E15.49764
G1 X46.624 Y172.031 E15.52602
G1 X46.16 Y171.416 E15.55702
G1 X45.776 Y170.854 E15.58441
G1 X45.382 Y170.216 E15.61459
G1 X45.043 Y169.606 E15.64268
G1 X44.708 Y168.931 E15.673
G1 X44.432 Y168.304 E15.70057
G1 X44.162 Y167.606 E15.73069
G1 X43.937 Y166.933 E15.75925
G1 X43.73 Y166.202 E15.78983
G1 X43.576 Y165.542 E15.8171
G1 X43.441 Y164.814 E15.8469
G1 X43.345 Y164.124 E15.87494
G1 X43.276 Y163.382 E15.90493
G1 X43.244 Y162.698 E15.93248
G1 X43.235 Y162.318 E15.94778
G1 X43.236 Y57.654 E20.15996
G1 X43.245 Y57.263 E20.1757
G1 X43.277 Y56.597 E20.20253
G1 X43.346 Y55.866 E20.23208
G1 X43.442 Y55.176 E20.26012
G1 X43.582 Y54.426 E20.29082
G1 X43.738 Y53.766 E20.31812
G1 X43.942 Y53.05 E20.34808
G1 X44.165 Y52.385 E20.37631
G1 X44.434 Y51.692 E20.40622
G1 X44.715 Y51.054 E20.43428
G1 X45.06 Y50.361 E20.46544
G1 X45.399 Y49.755 E20.49338
G1 X45.79 Y49.126 E20.52319
G1 X46.174 Y48.566 E20.55051
G1 X46.624 Y47.969 E20.5806
G1 X47.074 Y47.427 E20.60895
G1 X47.587 Y46.865 E20.63957
G0 F6000 X47.898 Y47.177
G1 F600 X48.39 Y46.686 E20.66755
G1 X48.912 Y46.211 E20.69595
G1 X49.441 Y45.772 E20.72362
G1 X50.015 Y45.339 E20.75255
G1 X50.586 Y44.949 E20.78038
G1 X51.169 Y44.587 E20.808
G1 X51.766 Y44.253 E20.83553
G1 X52.422 Y43.926 E20.86503
G1 X53.06 Y43.645 E20.89309
G1 X53.726 Y43.388 E20.92181
G1 X54.397 Y43.164 E20.95028
G1 X55.082 Y42.97 E20.97894
G1 X55.745 Y42.815 E21.00634
G1 X56.437 Y42.686 E21.03467
G1 X57.127 Y42.59 E21.0627
G1 X57.831 Y42.525 E21.09116
G1 X58.52 Y42.493 E21.11891
G1 X58.877 Y42.485 E21.13329
G1 X62.895 Y42.485 E21.29499
G1 X63.679 Y42.525 E21.32658
G1 X64.454 Y42.644 E21.35814
G1 X65.213 Y42.842 E21.3897
G1 X65.948 Y43.116 E21.42127
G1 X66.652 Y43.464 E21.45288
G1 X67.316 Y43.881 E21.48443
G1 X67.935 Y44.364 E21.51603
G1 X68.06 Y44.48 E21.52289
G1 X68.354 Y44.214 E21.53885
G1 X68.986 Y43.751 E21.57038
G1 X69.663 Y43.354 E21.60196
G1 X70.377 Y43.028 E21.63355
G1 X71.12 Y42.776 E21.66513
G1 X71.885 Y42.601 E21.69671
G1 X72.664 Y42.505 E21.7283
G1 X73.216 Y42.485 E21.75053
G1 X161.157 Y42.486 E25.28969
G1 X161.527 Y42.495 E25.30459
G1 X162.193 Y42.527 E25.33142
G1 X162.887 Y42.592 E25.35947
G1 X163.575 Y42.688 E25.38743
G1 X164.283 Y42.821 E25.41642
G1 X164.947 Y42.978 E25.44388
G1 X165.617 Y43.168 E25.47191
G1 X166.275 Y43.388 E25.49983
G1 X166.939 Y43.645 E25.52848
G1 X167.581 Y43.928 E25.55672
G1 X168.234 Y44.254 E25.58609
G1 X168.84 Y44.593 E25.61404
G1 X169.434 Y44.962 E25.64218
G1 X170.003 Y45.352 E25.66994
G1 X170.566 Y45.777 E25.69833
G1 X171.094 Y46.215 E25.72594
G1 X171.639 Y46.713 E25.75565
G1 X172.129 Y47.206 E25.78363
G1 X172.587 Y47.709 E25.811
G1 X173.038 Y48.251 E25.83938
G1 X173.477 Y48.832 E25.86869
G1 X173.861 Y49.394 E25.89608
G1 X174.226 Y49.983 E25.92397
G1 X174.56 Y50.581 E25.95153
G1 X174.885 Y51.235 E25.98092
G1 X175.164 Y51.869 E26.0088
G1 X175.418 Y52.525 E26.03711
G1 X175.645 Y53.203 E26.06588
G1 X175.842 Y53.898 E26.09496
G1 X175.996 Y54.558 E26.12223
G1 X176.123 Y55.244 E26.15031
G1 X176.219 Y55.932 E26.17826
G1 X176.285 Y56.635 E26.20668
G1 X176.317 Y57.316 E26.23412
G1 X176.325 Y57.677 E26.24865
G1 X176.325 Y162.312 E30.45966
G1 X176.316 Y162.675 E30.47427
G1 X176.283 Y163.375 E30.50248
G1 X176.219 Y164.073 E30.53069
G1 X176.123 Y164.763 E30.55872
G1 X175.99 Y165.473 E30.58779
G1 X175.834 Y166.133 E30.61509
G1 X175.64 Y166.81 E30.64343
G1 X175.418 Y167.472 E30.67153
G1 X175.166 Y168.125 E30.6997
G1 X174.884 Y168.766 E30.72788
G1 X174.556 Y169.424 E30.75747
G1 X174.217 Y170.03 E30.78541
G1 X173.854 Y170.616 E30.81316
G1 X173.476 Y171.169 E30.84011
G1 X173.042 Y171.744 E30.86911
G1 X172.586 Y172.293 E30.89783
G1 X172.102 Y172.823 E30.92671
G1 X171.61 Y173.314 E30.95469
G1 X171.088 Y173.789 E30.98309
G1 X170.559 Y174.228 E31.01076
G1 X169.985 Y174.661 E31.03969
G1 X169.414 Y175.051 E31.06752
G1 X168.831 Y175.413 E31.09514
G1 X168.234 Y175.747 E31.12267
G1 X167.578 Y176.074 E31.15217
G1 X166.94 Y176.355 E31.18022
G1 X166.274 Y176.612 E31.20895
G1 X165.603 Y176.836 E31.23742
G1 X164.918 Y177.03 E31.26607
G1 X164.255 Y177.185 E31.29348
G1 X163.563 Y177.314 E31.3218
G1 X162.873 Y177.41 E31.34984
G1 X162.167 Y177.475 E31.37837
G1 X161.473 Y177.507 E31.40633
G1 X161.118 Y177.515 E31.42062
G1 X58.844 Y177.514 E35.53662
G1 X58.474 Y177.505 E35.55151
G1 X57.808 Y177.473 E35.57835
G1 X57.117 Y177.409 E35.60627
G1 X56.427 Y177.313 E35.63431
G1 X55.714 Y177.179 E35.66351
G1 X55.051 Y177.022 E35.69093
G1 X54.383 Y176.832 E35.71888
G1 X53.725 Y176.612 E35.7468
G1 X53.061 Y176.355 E35.77545
G1 X52.419 Y176.072 E35.80369
G1 X51.766 Y175.746 E35.83306
G1 X51.16 Y175.407 E35.86101
G1 X50.566 Y175.038 E35.88915
G1 X49.997 Y174.648 E35.91691
G1 X49.433 Y174.222 E35.94536
G1 X48.904 Y173.783 E35.97302
G1 X48.36 Y173.286 E36.00268
G1 X47.871 Y172.794 E36.03059
G1 X47.413 Y172.291 E36.05797
G1 X46.962 Y171.749 E36.08635
G1 X46.523 Y171.168 E36.11565
G1 X46.139 Y170.606 E36.14305
G1 X45.767 Y170.002 E36.1716
G1 X45.428 Y169.392 E36.19968
G1 X45.111 Y168.754 E36.22835
G1 X44.835 Y168.127 E36.25592
G1 X44.579 Y167.466 E36.28445
G1 X44.354 Y166.793 E36.31301
G1 X44.158 Y166.102 E36.34191
G1 X44.004 Y165.442 E36.36919
G1 X43.876 Y164.753 E36.39739
G1 X43.78 Y164.063 E36.42543
G1 X43.715 Y163.362 E36.45376
G1 X43.683 Y162.678 E36.48132
G1 X43.675 Y162.318 E36.49581
G1 X43.676 Y57.654 E40.70799
G1 X43.685 Y57.284 E40.72288
G1 X43.717 Y56.618 E40.74972
G1 X43.781 Y55.927 E40.77764
G1 X43.877 Y55.237 E40.80568
G1 X44.01 Y54.527 E40.83475
G1 X44.166 Y53.867 E40.86205
G1 X44.36 Y53.19 E40.89039
G1 X44.583 Y52.525 E40.91862
G1 X44.836 Y51.869 E40.94691
G1 X45.117 Y51.231 E40.97497
G1 X45.444 Y50.576 E41.00443
G1 X45.783 Y49.97 E41.03238
G1 X46.153 Y49.374 E41.06061
G1 X46.537 Y48.814 E41.08793
G1 X46.963 Y48.25 E41.11638
G1 X47.413 Y47.708 E41.14473
G1 X47.898 Y47.177 E41.17367
G0 F6000 X48.209 Y47.488
G1 F600 X48.701 Y46.997 E41.20165
G1 X49.193 Y46.549 E41.22842
G1 X49.722 Y46.11 E41.25609
G1 X50.263 Y45.702 E41.28336
G1 X50.834 Y45.312 E41.31119
G1 X51.384 Y44.971 E41.33723
G1 X51.981 Y44.637 E41.36476
G1 X52.6 Y44.329 E41.39259
G1 X53.238 Y44.048 E41.42064
G1 X53.865 Y43.806 E41.44769
G1 X54.536 Y43.582 E41.47616
G1 X55.182 Y43.399 E41.50318
G1 X55.845 Y43.244 E41.53058
G1 X56.498 Y43.122 E41.55732
G1 X57.188 Y43.026 E41.58536
G1 X57.851 Y42.965 E41.61215
G1 X58.54 Y42.933 E41.63991
G1 X58.877 Y42.925 E41.65347
G1 X62.895 Y42.925 E41.81518
G1 X63.656 Y42.965 E41.84585
G1 X64.408 Y43.084 E41.87649
G1 X65.144 Y43.282 E41.90716
G1 X65.855 Y43.556 E41.93783
G1 X66.533 Y43.902 E41.96846
G1 X67.172 Y44.318 E41.99915
G1 X68.029 Y45.051 E42.04453
G1 X68.056 Y45.078 E42.04607
G1 X68.082 Y45.051 E42.04758
G1 X68.649 Y44.542 E42.07824
G1 X69.265 Y44.094 E42.10889
G1 X69.925 Y43.714 E42.13954
G1 X70.621 Y43.404 E42.17021
G1 X71.346 Y43.17 E42.20087
G1 X72.092 Y43.013 E42.23155
G1 X73.216 Y42.925 E42.27692
G1 X161.157 Y42.926 E45.81608
G1 X161.505 Y42.934 E45.83009
G1 X162.171 Y42.966 E45.85693
G1 X162.826 Y43.028 E45.88341
G1 X163.514 Y43.124 E45.91136
G1 X164.182 Y43.249 E45.93871
G1 X164.846 Y43.406 E45.96617
G1 X165.477 Y43.586 E45.99258
G1 X166.135 Y43.806 E46.0205
G1 X166.761 Y44.048 E46.04751
G1 X167.403 Y44.331 E46.07575
G1 X168.019 Y44.638 E46.10345
G1 X168.625 Y44.977 E46.13139
G1 X169.186 Y45.325 E46.15796
G1 X169.755 Y45.715 E46.18572
G1 X170.285 Y46.115 E46.21244
G1 X170.813 Y46.553 E46.24005
G1 X171.327 Y47.023 E46.26808
G1 X171.817 Y47.516 E46.29606
G1 X172.249 Y47.99 E46.32187
G1 X172.7 Y48.532 E46.35024
G1 X173.113 Y49.08 E46.37786
G1 X173.497 Y49.642 E46.40525
G1 X173.841 Y50.198 E46.43156
G1 X174.175 Y50.796 E46.45913
G1 X174.482 Y51.412 E46.48683
G1 X174.761 Y52.046 E46.51471
G1 X175 Y52.665 E46.54141
G1 X175.227 Y53.343 E46.57018
G1 X175.413 Y53.998 E46.59759
G1 X175.567 Y54.658 E46.62486
G1 X175.687 Y55.305 E46.65134
G1 X175.783 Y55.993 E46.6793
G1 X175.845 Y56.655 E46.70606
G1 X175.877 Y57.336 E46.7335
G1 X175.885 Y57.677 E46.74722
G1 X175.885 Y162.312 E50.95823
G1 X175.877 Y162.654 E50.972
G1 X175.844 Y163.354 E51.0002
G1 X175.783 Y164.012 E51.0268
G1 X175.687 Y164.702 E51.05484
G1 X175.561 Y165.372 E51.08227
G1 X175.405 Y166.032 E51.10957
G1 X175.223 Y166.67 E51.13627
G1 X175.001 Y167.332 E51.16437
G1 X174.763 Y167.948 E51.19094
G1 X174.481 Y168.589 E51.21913
G1 X174.172 Y169.209 E51.24701
G1 X173.833 Y169.815 E51.27495
G1 X173.491 Y170.368 E51.30112
G1 X173.113 Y170.921 E51.32808
G1 X172.704 Y171.463 E51.3554
G1 X172.248 Y172.012 E51.38412
G1 X171.791 Y172.512 E51.41138
G1 X171.299 Y173.003 E51.43936
G1 X170.807 Y173.451 E51.46614
G1 X170.278 Y173.89 E51.4938
G1 X169.737 Y174.298 E51.52107
G1 X169.166 Y174.688 E51.5489
G1 X168.616 Y175.029 E51.57495
G1 X168.019 Y175.363 E51.60248
G1 X167.4 Y175.671 E51.6303
G1 X166.762 Y175.952 E51.65836
G1 X166.135 Y176.194 E51.6854
G1 X165.464 Y176.418 E51.71387
G1 X164.818 Y176.601 E51.7409
G1 X164.155 Y176.756 E51.7683
G1 X163.502 Y176.878 E51.79503
G1 X162.812 Y176.974 E51.82307
G1 X162.146 Y177.035 E51.84998
G1 X161.452 Y177.067 E51.87794
G1 X161.118 Y177.075 E51.89139
G1 X58.844 Y177.074 E56.00738
G1 X58.496 Y177.066 E56.02139
G1 X57.83 Y177.034 E56.04822
G1 X57.178 Y176.973 E56.07458
G1 X56.488 Y176.877 E56.10261
G1 X55.815 Y176.751 E56.13017
G1 X55.152 Y176.594 E56.15759
G1 X54.523 Y176.414 E56.18392
G1 X53.865 Y176.194 E56.21184
G1 X53.239 Y175.952 E56.23885
G1 X52.597 Y175.669 E56.26709
G1 X51.981 Y175.362 E56.29479
G1 X51.375 Y175.023 E56.32273
G1 X50.814 Y174.675 E56.3493
G1 X50.245 Y174.285 E56.37706
G1 X49.714 Y173.884 E56.40384
G1 X49.185 Y173.445 E56.43151
G1 X48.672 Y172.976 E56.45948
G1 X48.183 Y172.484 E56.4874
G1 X47.751 Y172.01 E56.51321
G1 X47.3 Y171.468 E56.54158
G1 X46.887 Y170.92 E56.5692
G1 X46.503 Y170.358 E56.59659
G1 X46.151 Y169.789 E56.62352
G1 X45.812 Y169.179 E56.65161
G1 X45.513 Y168.577 E56.67866
G1 X45.237 Y167.95 E56.70623
G1 X44.997 Y167.327 E56.73309
G1 X44.772 Y166.654 E56.76165
G1 X44.587 Y166.002 E56.78893
G1 X44.433 Y165.342 E56.8162
G1 X44.312 Y164.692 E56.84281
G1 X44.216 Y164.002 E56.87085
G1 X44.155 Y163.341 E56.89756
G1 X44.123 Y162.657 E56.92512
G1 X44.115 Y162.318 E56.93877
G1 X44.116 Y57.654 E61.15095
G1 X44.124 Y57.306 E61.16495
G1 X44.156 Y56.64 E61.19179
G1 X44.217 Y55.988 E61.21814
G1 X44.313 Y55.298 E61.24618
G1 X44.439 Y54.628 E61.27362
G1 X44.595 Y53.968 E61.30091
G1 X44.777 Y53.33 E61.32761
G1 X45 Y52.665 E61.35584
G1 X45.239 Y52.047 E61.3825
G1 X45.52 Y51.409 E61.41056
G1 X45.828 Y50.791 E61.43835
G1 X46.167 Y50.185 E61.46629
G1 X46.515 Y49.623 E61.4929
G1 X46.899 Y49.063 E61.52022
G1 X47.301 Y48.531 E61.54706
G1 X47.751 Y47.989 E61.57541
G1 X48.209 Y47.488 E61.60273
G0 F6000 X48.519 Y47.8
G1 F600 X49.011 Y47.309 E61.6307
G1 X49.474 Y46.888 E61.65588
G1 X50.003 Y46.449 E61.68355
G1 X50.511 Y46.065 E61.70918
G1 X51.082 Y45.675 E61.73701
